www/community/platinum-weather-card/a-hurricane.svg

<?xml version="1.0" encoding="UTF-8"?>
<!-- Tropical Storm | Contributed by hsoJ95 on GitHub: https://github.com/hsoj95 -->
<svg version="1.1" xmlns="http://www.w3.org/2000/svg" xmlns:xlink="http://www.w3.org/1999/xlink" width="64" height="64" viewbox="0 0 64 64">
    <defs>
        <filter id="blur" width="200%" height="200%">
            <feGaussianBlur in="SourceAlpha" stdDeviation="3" />
            <feOffset dx="0" dy="4" result="offsetblur" />
            <feComponentTransfer>
                <feFuncA type="linear" slope="0.05" />
            </feComponentTransfer>
            <feMerge>
                <feMergeNode/>
                <feMergeNode in="SourceGraphic" />
            </feMerge>
        </filter>
        <style>
            <![CDATA[ @keyframes storm {
                0% {
                    transform: rotate(0turn);
                }

                100% {
                    transform: rotate(-1turn);
                }
            }


            #storm {
                -webkit-animation-name: storm;
                -moz-animation-name: storm;
                animation-name: storm;
                -webkit-animation-duration: 5s;
                -moz-animation-duration: 5s;
                animation-duration: 5s;
                transform-origin: 50% 50%;
                -webkit-animation-timing-function: linear;
                -moz-animation-timing-function: linear;
                animation-timing-function: linear;
                -webkit-animation-iteration-count: infinite;
                -moz-animation-iteration-count: infinite;
                animation-iteration-count: infinite;
            }

            @keyframes error {
                0% {
                    fill: #cc0000;
                }

                50% {
                    fill: #ff0000;
                }

                100% {
                    fill: #cc0000;
                }
            }

            #Shape {
                -webkit-animation-name: error;
                -moz-animation-name: error;
                animation-name: error;
                -webkit-animation-duration: 1s;
                -moz-animation-duration: 1s;
                animation-duration: 1s;
                -webkit-animation-timing-function: linear;
                -moz-animation-timing-function: linear;
                animation-timing-function: linear;
                -webkit-animation-iteration-count: infinite;
                -moz-animation-iteration-count: infinite;
                animation-iteration-count: infinite;
            }

            ]]>
        </style>
    </defs>
    <g id="storm" stroke="none" stroke-width="1" fill="none" fill-rule="evenodd">
        <g transform="translate(15, 20)" fill-rule="nonzero" fill="#CC0000">
            <path d="M18.4780225,0.0917014924 C18.5230562,0.0890149253 18.9252135,0.0890149253 19.371146,0.090358209 C20.1829213,0.0942985076 20.4027865,0.103522388 20.9947865,0.156358209 C21.7104719,0.221104477 22.4936629,0.338686567 23.1981124,0.487880599 C23.521618,0.556567163 23.96,0.659552239 23.9699775,0.670119401 C23.9724944,0.671462685 23.8625618,0.678089554 23.7276404,0.683373135 C22.0902471,0.74283582 20.5264719,1.15746269 19.4085394,1.82713433 C18.5180225,2.35934328 17.8523147,3.0699403 17.457618,3.90734329 C17.2739775,4.29429852 17.2053034,4.58220897 17.2203146,4.8965373 C17.2402696,5.34555225 17.4139326,5.73385076 17.9409439,6.50919401 C18.2482696,6.96089554 18.4655281,7.30029852 18.6179775,7.56573135 C19.2237303,8.62101492 19.5334832,9.67101494 19.6296629,10.9997015 C19.6521348,11.3140299 19.6483596,12.1659403 19.6221124,12.5053433 C19.536,13.6465075 19.373573,14.5076418 19.0838652,15.3713731 C18.3082247,17.6853134 16.7057078,19.6954925 14.4249888,21.2156418 C13.1310562,22.0794627 11.5847191,22.7846866 9.95352806,23.2549254 C8.64458426,23.6326567 7.36305619,23.8492836 5.83802246,23.9522686 C5.4895281,23.976 3.97698877,23.976 3.62732584,23.9522686 C2.73546067,23.892806 2.07101124,23.8122985 1.2915955,23.6709851 C0.760808988,23.5758805 -0.0123146068,23.4001791 0.000179775281,23.3790447 C0.00386516854,23.3737612 0.0987865171,23.3684776 0.212494381,23.3684776 C0.768269662,23.3684776 1.66885393,23.2549254 2.31460674,23.1030447 C3.76719101,22.7622985 4.87505618,22.190418 5.6719101,21.3702089 C6.02912359,21.0017015 6.295191,20.6266567 6.50624719,20.1920597 C6.6799101,19.8328657 6.74858426,19.5925075 6.75856181,19.3058508 C6.77851684,18.7709553 6.62993258,18.4182985 5.97914606,17.4581195 C5.75182023,17.121403 5.50705617,16.7409851 5.3971236,16.5521195 C4.78139325,15.4968358 4.45788765,14.4283881 4.3579326,13.1261195 C4.34049439,12.8949851 4.33051684,12.2781492 4.34049439,11.9995523 C4.40044942,10.2878508 4.72638203,8.87462685 5.37591012,7.51289554 C6.28017979,5.61770148 7.82022472,3.9416418 9.82489882,2.67107462 C11.9145168,1.34641791 14.4874607,0.477313432 17.1790562,0.189402985 C17.6025168,0.144537314 17.8610337,0.124656716 18.4780225,0.0917014924 Z"
                id=""></path>
        </g>
    </g>
    <g id="error" transform="translate(40, 30)">
        <path d="M7.77911118,2.90598694 L1.78786622,13.0231308 L1.78786622,13.0231308 C1.2250391,13.9735514 1.53924574,15.2002811 2.48966639,15.7631082 C2.79820001,15.9458179 3.15018031,16.0422194 3.50875504,16.0422194 L15.491245,16.0422194 L15.491245,16.0422194 C16.5958145,16.0422194 17.491245,15.1467889 17.491245,14.0422194 C17.491245,13.6836447 17.3948435,13.3316644 17.2121338,13.0231308 L11.2208888,2.90598694 L11.2208888,2.90598694 C10.6580617,1.95556629 9.431332,1.64135966 8.48091135,2.20418678 C8.19172737,2.37543789 7.95036229,2.61680296 7.77911118,2.90598694 Z"
            id="Shape" fill="#CC0000" fill-rule="nonzero"></path>
        <path d="M9.5,10.5 L9.5,5.5" id="Line" stroke="#FFFFFF" stroke-width="1.5" stroke-linecap="round"></path>
        <circle id="Oval" fill="#FFFFFF" cx="9.5" cy="13" r="1"></circle>
    </g>
</svg>

<?xml version="1.0" encoding="UTF-8"?>
<!-- Tropical Storm | Contributed by hsoJ95 on GitHub: https://github.com/hsoj95 -->
<svg width="56" height="48" version="1.1" xmlns="http://www.w3.org/2000/svg">
   <defs>
    <filter id="blur" x="-.16995" y="-.17864" width="1.3289" height="1.455">
      <feGaussianBlur in="SourceAlpha" stdDeviation="3" />
      <feOffset dx="0" dy="4" result="offsetblur" />
      <feComponentTransfer>
        <feFuncA slope="0.05" type="linear" />
      </feComponentTransfer>
      <feMerge>
        <feMergeNode />
        <feMergeNode in="SourceGraphic" />
      </feMerge>
    </filter>
        <style>
            <![CDATA[
            @keyframes storm {
                0% {
                    transform: rotate(0turn);
                }

                100% {
                    transform: rotate(-1turn);
                }
            }


            #storm {
                -webkit-animation-name: storm;
                -moz-animation-name: storm;
                animation-name: storm;
                -webkit-animation-duration: 5s;
                -moz-animation-duration: 5s;
                animation-duration: 5s;
                transform-origin: 50% 50%;
                -webkit-animation-timing-function: linear;
                -moz-animation-timing-function: linear;
                animation-timing-function: linear;
                -webkit-animation-iteration-count: infinite;
                -moz-animation-iteration-count: infinite;
                animation-iteration-count: infinite;
            }

            @keyframes error {
                0% {
                    fill: #cc0000;
                }

                50% {
                    fill: #ff0000;
                }

                100% {
                    fill: #cc0000;
                }
            }

            #Shape {
                -webkit-animation-name: error;
                -moz-animation-name: error;
                animation-name: error;
                -webkit-animation-duration: 1s;
                -moz-animation-duration: 1s;
                animation-duration: 1s;
                -webkit-animation-timing-function: linear;
                -moz-animation-timing-function: linear;
                animation-timing-function: linear;
                -webkit-animation-iteration-count: infinite;
                -moz-animation-iteration-count: infinite;
                animation-iteration-count: infinite;
            }
            ]]>
        </style>
    </defs>
    <g id="storm" transform="translate(16,-2)" fill="none" fill-rule="evenodd"
        style="-moz-animation-duration:5s;-moz-animation-iteration-count:infinite;-moz-animation-name:storm;-moz-animation-timing-function:linear;-webkit-animation-duration:5s;-webkit-animation-iteration-count:infinite;-webkit-animation-name:storm;-webkit-animation-timing-function:linear">
        <g transform="translate(15,20)" fill="#c00" fill-rule="nonzero">
            <path id=""
                d="m18.478 0.091701c0.04503-0.0026866 0.44719-0.0026866 0.89312-0.0013433 0.81178 0.0039403 1.0316 0.013164 1.6236 0.066 0.71569 0.064746 1.4989 0.18233 2.2033 0.33152 0.32351 0.068687 0.76189 0.17167 0.77187 0.18224 0.0025 0.001343-0.10742 0.00797-0.24234 0.013254-1.6374 0.059463-3.2012 0.47409-4.3191 1.1438-0.89052 0.53221-1.5562 1.2428-1.9509 2.0802-0.18364 0.38696-0.25231 0.67487-0.2373 0.98919 0.01995 0.44901 0.19362 0.83731 0.72063 1.6127 0.30733 0.4517 0.52458 0.7911 0.67703 1.0565 0.60575 1.0553 0.91551 2.1053 1.0117 3.434 0.02247 0.31433 0.0187 1.1662-0.0076 1.5056-0.08611 1.1412-0.24854 2.0023-0.53825 2.866-0.77564 2.3139-2.3782 4.3241-4.6589 5.8443-1.2939 0.86382-2.8403 1.569-4.4715 2.0393-1.3089 0.37773-2.5905 0.59436-4.1155 0.69734-0.34849 0.02373-1.861 0.02373-2.2107 0-0.89187-0.05946-1.5563-0.13997-2.3357-0.28128-0.53079-0.09511-1.3039-0.27081-1.2914-0.29194 0.0036854-0.0053 0.098607-0.01057 0.21231-0.01057 0.55578 0 1.4564-0.11355 2.1021-0.26543 1.4526-0.34075 2.5604-0.91263 3.3573-1.7328 0.35721-0.36851 0.62328-0.74355 0.83434-1.1781 0.17366-0.35919 0.24234-0.59955 0.25231-0.88621 0.019955-0.5349-0.12863-0.88755-0.77942-1.8477-0.22733-0.33672-0.47209-0.71713-0.58202-0.906-0.61573-1.0553-0.93924-2.1237-1.0392-3.426-0.017438-0.23113-0.027416-0.84797-0.017438-1.1266 0.059955-1.7117 0.38589-3.1249 1.0354-4.4867 0.90427-1.8952 2.4443-3.5713 4.449-4.8418 2.0896-1.3247 4.6626-2.1938 7.3542-2.4817 0.42346-0.044866 0.68198-0.064746 1.299-0.097701z" />
        </g>
    </g>
    <g class="warning" transform="translate(36,28)">
      <path
        d="m7.7791 2.906-5.9912 10.117c-0.56283 0.95042-0.24862 2.1772 0.7018 2.74 0.30853 0.18271 0.66051 0.27911 1.0191 0.27911h11.982c1.1046 0 2-0.89543 2-2 0-0.35857-0.0964-0.71056-0.27911-1.0191l-5.9912-10.117c-0.56283-0.95042-1.7896-1.2646-2.74-0.7018-0.28918 0.17125-0.53055 0.41262-0.7018 0.7018z"
        fill="#c00" />
      <path d="m9.5 10.5v-5" stroke="#fff" stroke-linecap="round" stroke-width="1.5" />
      <circle cx="9.5" cy="13" r="1" fill="#fff" />
    </g>
</svg>
